X:550
T:
C:Olof Hansson
S:Av Olof Hansson i Ardre, uppt. efter »Florsen» i Burs.
R:vals
O:Gotland, Ardre
M:3/4
L:1/8
K:C
(CE)(Gc)(ec)|(Bc)(de) f2|(dB)(GB)(de)|(dc)(BA)(GE)|
(CE)(Gc)(ec)|(Bc)(de) f2|(dB)(GB)(dB)|c6::(ge)(ce)(ge)|
(ag)(fe)(dB)|(GB)(de)(fd)|(cB)(AG)(FE)|(CE)(Gc)(ec)|
(Bc)(de) f2|(dB)(GB)(dB)|c6::e2 gggg|(ag)(fe)(de)|
f2 dddd|d4BA|(GB)(Bd)(dg)|gf(ed)(cd)|e2 cccc|c6:|

